inst/assets/svg/wi-lunar-eclipse.svg

<?xml version="1.0" encoding="UTF-8"?>
<svg xmlns="http://www.w3.org/2000/svg" xmlns:xlink="http://www.w3.org/1999/xlink" width="30pt" height="30pt" viewBox="0 0 30 30" version="1.1">
<g id="surface296">
<path style=" stroke:none;fill-rule:nonzero;fill:rgb(0%,0%,0%);fill-opacity:1;" d="M 9.800781 14.621094 C 9.800781 13.691406 10.03125 12.820313 10.5 12.019531 C 10.96875 11.21875 11.601563 10.578125 12.398438 10.109375 C 13.199219 9.640625 14.070313 9.410156 15 9.410156 C 15.941406 9.410156 16.808594 9.640625 17.609375 10.109375 C 18.410156 10.578125 19.039063 11.210938 19.511719 12.011719 C 19.980469 12.808594 20.210938 13.679688 20.210938 14.621094 C 20.210938 15.558594 19.980469 16.429688 19.511719 17.230469 C 19.039063 18.03125 18.410156 18.660156 17.609375 19.128906 C 16.808594 19.601563 15.941406 19.828125 15 19.828125 C 14.058594 19.828125 13.199219 19.601563 12.398438 19.128906 C 11.601563 18.660156 10.96875 18.03125 10.5 17.230469 C 10.03125 16.429688 9.800781 15.558594 9.800781 14.621094 Z M 14.25 11.21875 C 15.121094 11.328125 15.851563 11.710938 16.441406 12.371094 C 17.03125 13.03125 17.328125 13.808594 17.328125 14.699219 C 17.328125 15.53125 17.070313 16.261719 16.550781 16.898438 C 16.03125 17.539063 15.371094 17.941406 14.570313 18.109375 C 14.769531 18.128906 14.910156 18.148438 15 18.148438 C 15.980469 18.148438 16.808594 17.800781 17.5 17.109375 C 18.191406 16.421875 18.539063 15.589844 18.539063 14.609375 C 18.539063 13.648438 18.191406 12.828125 17.5 12.140625 C 16.808594 11.460938 15.96875 11.121094 15 11.121094 C 14.738281 11.140625 14.488281 11.171875 14.25 11.21875 Z M 14.25 11.21875 "/>
</g>
</svg>

<?xml version="1.0" encoding="utf-8"?>
<!-- Generator: Adobe Illustrator 22.0.1, SVG Export Plug-In . SVG Version: 6.00 Build 0)  -->
<svg version="1.1" id="Layer_1" xmlns="http://www.w3.org/2000/svg" xmlns:xlink="http://www.w3.org/1999/xlink" x="0px" y="0px"
	 viewBox="0 0 30 30" style="enable-background:new 0 0 30 30;" xml:space="preserve">
<path d="M9.8,14.62c0-0.93,0.23-1.8,0.7-2.6s1.1-1.44,1.9-1.91s1.67-0.7,2.6-0.7c0.94,0,1.81,0.23,2.61,0.7
	c0.8,0.47,1.43,1.1,1.9,1.9c0.47,0.8,0.7,1.67,0.7,2.61s-0.23,1.81-0.7,2.61c-0.47,0.8-1.1,1.43-1.9,1.9
	c-0.8,0.47-1.67,0.7-2.61,0.7s-1.8-0.23-2.6-0.7c-0.8-0.47-1.43-1.1-1.9-1.9C10.03,16.43,9.8,15.56,9.8,14.62z M14.25,11.22
	c0.87,0.11,1.6,0.49,2.19,1.15c0.59,0.66,0.89,1.44,0.89,2.33c0,0.83-0.26,1.56-0.78,2.2s-1.18,1.04-1.98,1.21
	c0.2,0.02,0.34,0.04,0.43,0.04c0.98,0,1.81-0.35,2.5-1.04c0.69-0.69,1.04-1.52,1.04-2.5c0-0.96-0.35-1.78-1.04-2.47
	c-0.69-0.68-1.53-1.02-2.5-1.02C14.74,11.14,14.49,11.17,14.25,11.22z"/>
</svg>
